source/img/support-consultation.svg

<svg width="60" height="68" viewBox="0 0 60 68" fill="none" xmlns="http://www.w3.org/2000/svg">
<path fill-rule="evenodd" clip-rule="evenodd" d="M30.5629 13.5693L29.2556 13.5693C22.6957 13.5693 18.3043 17.2142 16.1945 21.8654C14.0527 26.5875 14.321 32.2122 16.9979 36.0203C18.2412 37.789 19.2882 39.1997 20.1821 40.4041C22.7647 43.8839 24.0685 45.6406 25.1331 49.3313C25.3456 50.0679 24.9207 50.8373 24.1841 51.0498C23.4475 51.2623 22.6781 50.8374 22.4656 50.1007C21.5486 46.9218 20.5856 45.6229 18.1605 42.352C17.248 41.1212 16.1285 39.6112 14.7266 37.6169C11.3903 32.8707 11.1905 26.1766 13.6662 20.7186C16.174 15.1896 21.4858 10.793 29.2556 10.793L30.5629 10.793C38.3268 10.793 43.644 15.1499 46.156 20.6661C48.6365 26.1132 48.4303 32.8025 45.097 37.6096C43.8552 39.4005 42.8188 40.8145 41.946 41.9958C41.8293 42.1537 41.7159 42.307 41.6056 42.4561C40.8853 43.4298 40.298 44.2237 39.793 44.9612C38.665 46.6082 37.9806 47.925 37.353 50.1007C37.1405 50.8374 36.3711 51.2623 35.6345 51.0498C34.8979 50.8373 34.4729 50.0679 34.6854 49.3313C35.4053 46.8355 36.2289 45.252 37.5024 43.3925C38.0383 42.6099 38.6598 41.7699 39.3759 40.802C39.486 40.6531 39.5984 40.5012 39.7131 40.346C40.5793 39.1736 41.5969 37.7851 42.8156 36.0276C45.5075 32.1454 45.7693 26.516 43.6293 21.8167C41.5208 17.1865 37.1287 13.5693 30.5629 13.5693Z" fill="#F1AC00"/>
<path fill-rule="evenodd" clip-rule="evenodd" d="M31.0592 19.9191C31.0592 20.2705 31.3226 20.5633 31.6675 20.6306C32.7472 20.8414 33.7528 21.2592 34.6415 21.841C34.9323 22.0314 35.3203 22.0081 35.5661 21.7623L36.859 20.4694C37.1301 20.1984 37.5695 20.1984 37.8406 20.4694L38.4845 21.1134C38.7556 21.3844 38.7556 21.8239 38.4846 22.0949L37.1842 23.3953C36.9395 23.64 36.9152 24.0259 37.1031 24.3164C37.6773 25.2043 38.0885 26.2075 38.2942 27.2837C38.3604 27.6299 38.6538 27.8949 39.0063 27.8949H40.8871C41.2705 27.8949 41.5812 28.2057 41.5812 28.589V29.4997C41.5812 29.883 41.2705 30.1938 40.8871 30.1938H38.9324C38.591 30.1938 38.3034 30.4429 38.2262 30.7754C37.9865 31.8078 37.5563 32.7671 36.9746 33.6143C36.7743 33.906 36.7935 34.3027 37.0437 34.5529L38.4848 35.9939C38.7558 36.265 38.7558 36.7044 38.4848 36.9755L37.8408 37.6194C37.5697 37.8905 37.1303 37.8905 36.8592 37.6194L35.3518 36.112C35.1115 35.8717 34.7342 35.8435 34.4449 36.0217C33.6056 36.5385 32.6683 36.9118 31.6675 37.1072C31.3226 37.1746 31.0592 37.4674 31.0592 37.8188V40.0218C31.0592 40.4051 30.7484 40.7158 30.3651 40.7158H29.4544C29.0711 40.7158 28.7603 40.4051 28.7603 40.0218V37.7599C28.7603 37.4174 28.5096 37.1292 28.1757 37.0531C27.2086 36.8326 26.3051 36.445 25.4971 35.9224C25.2065 35.7345 24.8206 35.7589 24.576 36.0035L22.9602 37.6193C22.6891 37.8904 22.2497 37.8904 21.9786 37.6193L21.3346 36.9753C21.0636 36.7043 21.0636 36.2648 21.3346 35.9938L22.943 34.3855C23.1887 34.1397 23.2121 33.7516 23.0217 33.4608C22.4921 32.6519 22.0983 31.7459 21.8729 30.7754C21.7957 30.4429 21.5081 30.1938 21.1668 30.1938H18.9324C18.549 30.1938 18.2383 29.883 18.2383 29.4997V28.589C18.2383 28.2057 18.549 27.8949 18.9324 27.8949H21.0929C21.4454 27.8949 21.7388 27.6299 21.805 27.2837C21.9986 26.2705 22.3744 25.322 22.8969 24.4736C23.075 24.1843 23.0468 23.807 22.8065 23.5668L21.3349 22.0951C21.0638 21.824 21.0638 21.3846 21.3349 21.1135L21.9788 20.4695C22.2499 20.1985 22.6893 20.1985 22.9604 20.4695L24.3656 21.8748C24.6158 22.125 25.0125 22.1442 25.3043 21.9439C26.1604 21.3561 27.1309 20.923 28.1757 20.6848C28.5096 20.6086 28.7603 20.3205 28.7603 19.978V18.067C28.7603 17.6837 29.0711 17.3729 29.4544 17.3729H30.3651C30.7484 17.3729 31.0592 17.6837 31.0592 18.067V19.9191ZM30.0496 35.3468C33.6272 35.3468 36.5274 32.4466 36.5274 28.869C36.5274 25.2914 33.6272 22.3912 30.0496 22.3912C26.472 22.3912 23.5718 25.2914 23.5718 28.869C23.5718 32.4466 26.472 35.3468 30.0496 35.3468Z" fill="#F1AC00"/>
<path fill-rule="evenodd" clip-rule="evenodd" d="M21.7158 52.5975C21.7158 51.8308 22.3373 51.2094 23.104 51.2094L36.6731 51.2093C37.4397 51.2093 38.0612 51.8308 38.0612 52.5975C38.0612 53.3641 37.4397 53.9856 36.6731 53.9856L23.104 53.9856C22.3373 53.9856 21.7158 53.3642 21.7158 52.5975Z" fill="#F1AC00"/>
<path fill-rule="evenodd" clip-rule="evenodd" d="M38.0082 8.20033C37.3085 7.8871 36.9951 7.06592 37.3084 6.36618L39.577 1.29817C39.8902 0.598424 40.7114 0.285091 41.4111 0.598319C42.1109 0.911548 42.4242 1.73273 42.111 2.43247L39.8424 7.50048C39.5291 8.20022 38.708 8.51356 38.0082 8.20033Z" fill="#F1AC00"/>
<path fill-rule="evenodd" clip-rule="evenodd" d="M21.4986 8.2443C20.7874 8.53073 19.9787 8.18645 19.6923 7.47532L17.6177 2.32485C17.3313 1.61372 17.6756 0.805025 18.3867 0.518586C19.0978 0.232146 19.9065 0.576427 20.193 1.28756L22.2675 6.43803C22.554 7.14916 22.2097 7.95786 21.4986 8.2443Z" fill="#F1AC00"/>
<path fill-rule="evenodd" clip-rule="evenodd" d="M8.42675 21.2103C8.25308 21.957 7.50696 22.4216 6.76024 22.2479L1.35198 20.9902C0.605255 20.8165 0.140696 20.0704 0.314357 19.3237C0.488018 18.5769 1.23414 18.1124 1.98086 18.286L7.38912 19.5438C8.13585 19.7175 8.60041 20.4636 8.42675 21.2103Z" fill="#F1AC00"/>
<path fill-rule="evenodd" clip-rule="evenodd" d="M11.1545 39.6088C11.6166 40.2205 11.4953 41.091 10.8836 41.5532L6.45305 44.9C5.84132 45.3622 4.97081 45.2409 4.5087 44.6291C4.04659 44.0174 4.16788 43.1469 4.77961 42.6848L9.21013 39.3379C9.82186 38.8758 10.6924 38.9971 11.1545 39.6088Z" fill="#F1AC00"/>
<path fill-rule="evenodd" clip-rule="evenodd" d="M51.3975 21.2103C51.5711 21.957 52.3173 22.4216 53.064 22.2479L58.4722 20.9902C59.219 20.8165 59.6835 20.0704 59.5099 19.3237C59.3362 18.5769 58.5901 18.1124 57.8434 18.286L52.4351 19.5438C51.6884 19.7175 51.2238 20.4636 51.3975 21.2103Z" fill="#F1AC00"/>
<path fill-rule="evenodd" clip-rule="evenodd" d="M49.4897 39.6299C49.0434 40.2533 49.187 41.1204 49.8104 41.5667L54.3254 44.7987C54.9488 45.245 55.8159 45.1014 56.2621 44.478C56.7084 43.8546 56.5648 42.9875 55.9414 42.5412L51.4264 39.3092C50.803 38.8629 49.9359 39.0065 49.4897 39.6299Z" fill="#F1AC00"/>
<path fill-rule="evenodd" clip-rule="evenodd" d="M21.7158 55.875C21.7158 55.1083 22.3373 54.4868 23.104 54.4868L36.6731 54.4868C37.4397 54.4868 38.0612 55.1083 38.0612 55.875C38.0612 56.6416 37.4397 57.2631 36.6731 57.2631L23.104 57.2631C22.3373 57.2631 21.7158 56.6416 21.7158 55.875Z" fill="#F1AC00"/>
<path fill-rule="evenodd" clip-rule="evenodd" d="M21.7158 59.1526C21.7158 58.3859 22.3373 57.7644 23.104 57.7644L36.6731 57.7644C37.4397 57.7644 38.0612 58.3859 38.0612 59.1526C38.0612 59.9192 37.4397 60.5407 36.6731 60.5407L23.104 60.5407C22.3373 60.5407 21.7158 59.9192 21.7158 59.1526Z" fill="#F1AC00"/>
<path fill-rule="evenodd" clip-rule="evenodd" d="M24.434 60.9778C25.2007 60.9778 25.8222 61.5993 25.8222 62.3659C25.8222 62.7028 26.0364 63.1995 26.7827 63.6795C27.5143 64.1501 28.6087 64.4866 29.889 64.4866C31.1693 64.4866 32.2637 64.1501 32.9953 63.6795C33.7417 63.1995 33.9559 62.7028 33.9559 62.3659C33.9559 61.5993 34.5774 60.9778 35.344 60.9778C36.1107 60.9778 36.7322 61.5993 36.7322 62.3659C36.7322 63.9669 35.7252 65.2246 34.4972 66.0145C33.2545 66.8139 31.6214 67.2629 29.889 67.2629C28.1566 67.2629 26.5235 66.8139 25.2808 66.0145C24.0528 65.2246 23.0459 63.9669 23.0459 62.3659C23.0459 61.5993 23.6674 60.9778 24.434 60.9778Z" fill="#F1AC00"/>
</svg>

<svg width="60" height="68" fill="none" viewBox="0 0 60 68" xmlns="http://www.w3.org/2000/svg"><path fill-rule="evenodd" clip-rule="evenodd" d="M30.563 13.57h-1.307c-6.56 0-10.952 3.644-13.061 8.295-2.142 4.723-1.874 10.347.803 14.155a195.5 195.5 0 0 0 3.184 4.384c2.583 3.48 3.887 5.237 4.951 8.927a1.388 1.388 0 1 1-2.667.77c-.917-3.18-1.88-4.478-4.306-7.749-.912-1.23-2.032-2.74-3.433-4.735-3.337-4.746-3.537-11.44-1.06-16.898 2.507-5.53 7.819-9.926 15.589-9.926h1.307c7.764 0 13.081 4.357 15.593 9.873 2.48 5.447 2.274 12.137-1.059 16.944a171.993 171.993 0 0 1-3.491 4.846c-.72.974-1.308 1.768-1.813 2.505-1.128 1.647-1.812 2.964-2.44 5.14a1.388 1.388 0 1 1-2.668-.77c.72-2.495 1.544-4.079 2.817-5.939.536-.782 1.158-1.622 1.874-2.59l.337-.456a169.45 169.45 0 0 0 3.103-4.318c2.691-3.883 2.953-9.512.813-14.211-2.108-4.63-6.5-8.248-13.066-8.248z"/><path fill-rule="evenodd" clip-rule="evenodd" d="M31.06 19.92c0 .35.263.643.608.71 1.08.211 2.085.63 2.974 1.211.29.19.678.167.924-.079l1.293-1.293a.694.694 0 0 1 .982 0l.643.644a.694.694 0 0 1 0 .982l-1.3 1.3a.737.737 0 0 0-.08.921 8.346 8.346 0 0 1 1.19 2.968c.066.346.36.61.712.61h1.881c.383 0 .694.312.694.695v.91c0 .384-.31.695-.694.695h-1.955a.737.737 0 0 0-.706.581 8.35 8.35 0 0 1-1.251 2.84.738.738 0 0 0 .069.938l1.44 1.44a.694.694 0 0 1 0 .982l-.643.644a.694.694 0 0 1-.982 0l-1.507-1.507a.736.736 0 0 0-.907-.09 8.34 8.34 0 0 1-2.777 1.085.738.738 0 0 0-.609.712v2.203c0 .383-.31.694-.694.694h-.91a.694.694 0 0 1-.695-.694V37.76c0-.343-.25-.63-.584-.707a8.346 8.346 0 0 1-2.679-1.13.737.737 0 0 0-.921.08L22.96 37.62a.694.694 0 0 1-.981 0l-.644-.644a.694.694 0 0 1 0-.981l1.608-1.608a.737.737 0 0 0 .079-.925 8.349 8.349 0 0 1-1.15-2.686.737.737 0 0 0-.705-.581h-2.235a.694.694 0 0 1-.694-.694v-.911c0-.383.311-.694.694-.694h2.16a.738.738 0 0 0 .713-.611 8.34 8.34 0 0 1 1.092-2.81.736.736 0 0 0-.09-.907l-1.472-1.472a.694.694 0 0 1 0-.982l.644-.643a.694.694 0 0 1 .981 0l1.406 1.405c.25.25.646.27.938.069a8.35 8.35 0 0 1 2.872-1.26.737.737 0 0 0 .584-.706v-1.911c0-.383.311-.694.694-.694h.911c.383 0 .694.31.694.694v1.852zm-1.01 15.427a6.478 6.478 0 1 0 0-12.956 6.478 6.478 0 0 0 0 12.956zm-8.334 17.25c0-.766.621-1.388 1.388-1.388h13.57a1.388 1.388 0 0 1 0 2.777h-13.57a1.388 1.388 0 0 1-1.388-1.389zM38.008 8.2a1.388 1.388 0 0 1-.7-1.834l2.269-5.068a1.388 1.388 0 1 1 2.534 1.134L39.842 7.5a1.388 1.388 0 0 1-1.834.7zm-16.509.044a1.388 1.388 0 0 1-1.807-.769l-2.074-5.15a1.388 1.388 0 0 1 2.575-1.037l2.074 5.15a1.388 1.388 0 0 1-.768 1.806zM8.427 21.21a1.388 1.388 0 0 1-1.667 1.038L1.352 20.99a1.388 1.388 0 0 1 .629-2.704l5.408 1.258c.747.174 1.211.92 1.038 1.666zm2.728 18.399c.462.611.34 1.482-.271 1.944L6.453 44.9a1.388 1.388 0 1 1-1.673-2.215l4.43-3.347a1.388 1.388 0 0 1 1.944.27zM51.398 21.21c.173.747.92 1.212 1.666 1.038l5.408-1.258a1.388 1.388 0 0 0-.629-2.704l-5.408 1.258a1.388 1.388 0 0 0-1.038 1.666zM49.49 39.63a1.388 1.388 0 0 0 .32 1.937l4.515 3.232a1.388 1.388 0 1 0 1.616-2.258l-4.515-3.232a1.388 1.388 0 0 0-1.936.32zM21.716 55.875c0-.767.621-1.388 1.388-1.388h13.57a1.388 1.388 0 0 1 0 2.776h-13.57a1.388 1.388 0 0 1-1.388-1.388zm0 3.278c0-.767.621-1.389 1.388-1.389h13.57a1.388 1.388 0 0 1 0 2.777h-13.57a1.388 1.388 0 0 1-1.388-1.388zm2.718 1.825c.767 0 1.388.621 1.388 1.388 0 .337.214.834.96 1.313.732.471 1.827.808 3.107.808 1.28 0 2.375-.337 3.106-.807.747-.48.96-.977.96-1.314a1.388 1.388 0 0 1 2.777 0c0 1.6-1.007 2.859-2.235 3.648-1.242.8-2.876 1.249-4.608 1.249-1.732 0-3.366-.45-4.608-1.249-1.228-.79-2.235-2.047-2.235-3.648 0-.767.621-1.388 1.388-1.388z"/></svg>
